X: 8301
T: Cornphiopa Corofinne
R: hornpipe
M: 4/4
K: Amajor
|:AE (3(FGA) FEEF|EcBA EcBA|FE (3(FGA) BEEF|EcBA eA (3(cBA)|
BdcB cFFE|FdcB AcBA|FBAF E2ec|1 (3(BAB) (3(cec) A2 A/2A/2A:|2 BecB ce A2 A2 (3(fga)||
ecaf ec (3(Bcd)|cAec BAFA|EccB ce (3(ABc)|FAdc Bf (3(egb)|
a2ac' ba (3(fga)|e3f d3e|cAec (3(BAB) (3(cec)|A2A/2A/2A Ae (3(fga)||
ecaf ec (3(Bcd)|cAec BAFA|EccB ce (3(ABc)|FAdc Bf (3(egb)|
a2ac' ba (3(fga)|e2-(3(efe) (3(dcB) (3(AGF) E2ec|(3(BAB) (3(cec) A2 A/2A/2A||

